!! 00000] TT[00
!! NN
!!!OTL: Daolaji
!!!ARE: Jilin, Yangbian
!! Ethnic Group: Chaoxian
!! III, 114
!!!SCT: C0283
!!!YEM: Copyright 1995, estate of Helmut Schaffrath.
**kern
*ICvox
*Ivox
*M3/4
*k[f#]
*G:
{4b
4b
4b
=1
4b
4b
8a
8b
=2
2dd
8ee
8dd
=3
8.b
16dd
8b
8a
4g}
=4
{8a
8b
4b
4b
=5
8a
8b
8a
8g
8e
8d
=6
4e
4g
12e
12d
12e
=7
2.d}
=8
{8a
8b
2b
=9
4b
8.b
16a
8g
8a
=10
2dd
8ee
8dd
=11
8.b
16dd
8b
8a
4g}
=12
{8a
8b
4b
4b
=13
8a
8b
8a
8g
8e
8d
=14
4e
4g
12e
12d
12e
=15
2.d}
=16
{8.e
16d
8e
8g
8e
8d
=17
8.e
16d
8e
8g
8e
8d
=18
4g
4.g
8a
=19
2g
4a}
=20
{4b
4b
4b
=21
4.b
8a
8g
8a
=22
8dd
8dd
4dd
8ee
8dd
=23
8.b
16dd
8b
8a
4g}
=24
{8a
8b
4b
4b
=25
8a
8b
8a
8g
8e
8d
=26
4e
4g
12e
12d
12e
=27
2.d}
==
!!!AGN: Wuge, Natur ( Pflanze )
!! Koreanische Minderheit, die hier seit der Qin-Dynastie lebt-.
!!    Ist auch in Korea sehr bekannt.
!!    Pinyin-Text der ersten Strophe vorhanden!
!!!ONB: ESAC (Essen Associative Code) Database: CHINA_029
!!!AMT: simple triple
!!!AIN: vox
!!!EED: Helmut Schaffrath
!!!EEV: 1.0
*-
